mu/images/microbit_files.svg

<?xml version="1.0" encoding="UTF-8" standalone="no"?>
<svg
   xmlns:dc="http://purl.org/dc/elements/1.1/"
   xmlns:cc="http://creativecommons.org/ns#"
   xmlns:rdf="http://www.w3.org/1999/02/22-rdf-syntax-ns#"
   xmlns:svg="http://www.w3.org/2000/svg"
   xmlns="http://www.w3.org/2000/svg"
   xmlns:sodipodi="http://sodipodi.sourceforge.net/DTD/sodipodi-0.dtd"
   xmlns:inkscape="http://www.inkscape.org/namespaces/inkscape"
   viewBox="0 0 512 512"
   version="1.1"
   id="svg4"
   sodipodi:docname="microbit_files.svg"
   inkscape:version="0.92.5 (2060ec1f9f, 2020-04-08)">
  <metadata
     id="metadata10">
    <rdf:RDF>
      <cc:Work
         rdf:about="">
        <dc:format>image/svg+xml</dc:format>
        <dc:type
           rdf:resource="http://purl.org/dc/dcmitype/StillImage" />
        <dc:title></dc:title>
      </cc:Work>
    </rdf:RDF>
  </metadata>
  <defs
     id="defs8" />
  <sodipodi:namedview
     pagecolor="#ffffff"
     bordercolor="#666666"
     borderopacity="1"
     objecttolerance="10"
     gridtolerance="10"
     guidetolerance="10"
     inkscape:pageopacity="0"
     inkscape:pageshadow="2"
     inkscape:window-width="1260"
     inkscape:window-height="941"
     id="namedview6"
     showgrid="false"
     inkscape:snap-global="false"
     inkscape:zoom="0.4609375"
     inkscape:cx="-47.728814"
     inkscape:cy="256"
     inkscape:window-x="266"
     inkscape:window-y="52"
     inkscape:window-maximized="0"
     inkscape:current-layer="svg4" />
  <path
     d="M 48 64 C 21.49 64 0 85.49 0 112 L 0 400 C 0 426.51 21.49 448 48 448 L 464 448 C 490.51 448 512 426.51 512 400 L 512 176 C 512 149.49 490.51 128 464 128 L 272 128 L 208 64 L 48 64 z M 197.5 178 L 314.5 178 C 357.7 178 392.5 212.8 392.5 256 C 392.5 299.2 357.1 334 314.5 334 L 197.5 334 C 154.3 334 119.5 299.2 119.5 256 C 119.5 212.8 154.3 178 197.5 178 z M 197.5 209.19922 C 171.7 209.19922 150.69922 230.2 150.69922 256 C 150.69922 281.8 171.7 302.80078 197.5 302.80078 L 314.5 302.80078 C 340.3 302.80078 361.30078 281.8 361.30078 256 C 361.30078 230.2 340.3 209.19922 314.5 209.19922 L 197.5 209.19922 z M 198.40039 240.40039 C 206.80039 240.40039 214 247.6 214 256 C 214 264.4 206.80039 271.59961 198.40039 271.59961 C 190.00039 271.59961 182.80078 264.4 182.80078 256 C 182.80078 247.6 189.40039 240.40039 198.40039 240.40039 z M 313.59961 240.40039 C 321.99961 240.40039 329.19922 247.6 329.19922 256 C 329.19922 264.4 322.59961 271.59961 313.59961 271.59961 C 305.19961 271.59961 298 264.4 298 256 C 298 247.6 304.59961 240.40039 313.59961 240.40039 z "
     id="path2" />
  <g
     transform="matrix(6,0,0,6,117.7,163.6)"
     id="g6">
    <g
       id="g53">
      <g
         id="g57" />
    </g>
  </g>
</svg>

<svg xmlns="http://www.w3.org/2000/svg" viewBox="0 0 512 512">
  <path d="M48 64a48 48 0 00-48 48v288a48 48 0 0048 48h416a48 48 0 0048-48V176a48 48 0 00-48-48H272l-64-64H48zm149.5 114h117c43.2 0 78 34.8 78 78s-35.4 78-78 78h-117c-43.2 0-78-34.8-78-78s34.8-78 78-78zm0 31.2a46.9 46.9 0 000 93.6h117a46.9 46.9 0 000-93.6h-117zm.9 31.2c8.4 0 15.6 7.2 15.6 15.6 0 8.4-7.2 15.6-15.6 15.6-8.4 0-15.6-7.2-15.6-15.6 0-8.4 6.6-15.6 15.6-15.6zm115.2 0c8.4 0 15.6 7.2 15.6 15.6 0 8.4-6.6 15.6-15.6 15.6-8.4 0-15.6-7.2-15.6-15.6 0-8.4 6.6-15.6 15.6-15.6z"/>
</svg>
